!!!!SEGMENT: pl-wtm--r-2033_smietanski-emil-wladyslaw--czigany-fantasie-op-27.krn
!!!cenid: 18xx:2015
!!!COM: Śmietański, Emil Władysław
!!!COM-rismID: pe50041781
!!!CDT: 1845-1886
!!!CNT: Polish
!!!OTL: Czigany Fantasie op. 27
!!!PDT: 1870
!!!AGN: Secular
!!!YEC: Copyright 2022 Narodowy Instytut Fryderyka Chopina (https://polishscores.org)
!!!YEM: License CC-BY-4.0 (https://creativecommons.org/licenses/by/4.0)
!!!SMS-siglum: PL-Wtm
!!!SMS-shelfmark: R 2033
!!!SMS-shelfwork: W
!!!SMS-variant:
!!!SMS-altvar:
!!!NIFC-rismSourceID: 1001111861
!!!NIFC-rismChildID: 1001111861
!!!NIFC-islandoraID: pl-wtm:29583
!!!URL-pdf-islandora: https://repozytorium.nifc.pl/islandora/object/pl-wtm%3A29583/datastream/PDF/view
!!!URL-scan: https://polish.musicsources.pl/pl/lokalizacje/galeria/rekopisy/6525 @EN{Scan on Polish Music Sources Website} @PL{Skany w portalu Dziedzictwo Muzyki Polskiej w otwartym dostępie}
!!!IIIF:
!!!ONB-nifc:
!!!AIN: 1 piano
!!!key:
**kern	**kern
*part1	*part1
*staff2	*staff1
*Ipiano	*Ipiano
*I"Piano	*I"Piano
*clefF4	*clefG2
*k[f#c#g#]	*k[f#c#g#]
*f#:	*f#:
*all\right	*all\right
*>[A,B,B,C]	*>[A,B,B,C]
=1-	=1-
*>A	*>A
*Xtuplet	*Xtuplet
!	!LO:TX:t=Od Humdrumowiczki. Niestety, nie dam sobie ręki uciąć\nza wszystkie znaki przy nutach i ich czas obowiązywania w cz.1. M.Ch.
!	!LO:TX:a:t=Lassiu.
4FF#\ 4C# 4A	8.f#\L 8.a
.	16a\Jk 16cc#
4A\ 4c# 4f#	8.a\L 8.cc#
.	16g#\Jk 16b#X
.	32qqg#\LLL 32qqb#
.	32qqa\JJJ 32qqcc#
4AA\ 4A	8g#\L 8b#
.	32f#\Jkk 32a
.	160%3e#X\LLL
.	160%3f#\
.	160%3g#\
.	160%3a\
.	160%3b#\JJJ
4F#\ 4G# 4B#X	8.f#\L 8.a
.	48g#\LL
.	48f#\
.	48e#X\JJJ
=2-	=2-
8C#\ 8E#X 8Bny	36e#y\LLL
.	36f#\
.	36g#\
.	36a\
.	36g#\
8ryy	.
.	36f#\
.	36e#\
.	36B\
.	36E#\
56C#\LLL	56B\
56DD\	56e#\
56C#\	56e#\
56D\	56e#\
56D\	56e#\
56D#X\	56e#\
56Eny\	56e#\
56E\	56e#\
56E#X\J	56e#\J
28.E#\	28.e#\
28F#\JJ	28f#\JJ
4FFF#/ 4FF#	2A/ 2c# 2f#
4F#\ 4A	.
=3-	=3-
32qqAA\ 32qqEny 32qqA	32qqc#/ 32qqa 32qqcc#
4AA\ 4Eny 4A	4c#/ 4a 4cc#
.	32qqf#/ 32qqdd 32qqff#
4DD\ 4AA 4F# 4d	4f#/ 4dd 4ff#
.	32qqeny/ 32qqcc# 32qqeeny
8.EE\L 8.G#	8.eny/L 8.cc# 8.eeny
!LO:N:vis=32	!LO:N:vis=32
16EE#X\Jk	16b#/Jk 16dd
28EE#\LL	28d/LL 28bny 28dd
28FF#\	28a/ 28cc#
28FF#\	28a/ 28cc#
28FF##X\	28g#/ 28b#X
28FF##\	28g#/ 28b#
28GG#\	28g#/JJ 28b#
28GG#\JJ	28ryy
=4-	=4-
.	32qqg#/LLL 32qqbny
32qqAAA\	32qqa/JJJ 32qqcc#
4.C#\ 4.A	4.c#/ 4.a 4.cc#
8A\ 8c#	48ccc#\LLL
.	48bb#X\
.	48ccc#\
.	48ddd\
.	48ccc#\
.	48bbn\JJJ
!!LO:LB:g=original
=5-	=5-
4ryy	24aa\LL
.	24gg#\
.	24ff#\
.	24ee#X\
.	24ff#\
.	24gg#\JJ
16GG#\LL 16B#X	8.f#\L 8.b#X 8.ff#
16AA\	.
16BB#X\	.
16C#\JJ	16f#\Jk 16b#
4CC#/ 4GG# 4C#	8.c#\L 8.e#X 8.cc#
.	48ee#\LL
.	48ff#\
.	48gg#\JJJ
4A\ 4d	8.f#\L 8.b#X 8.aa
.	48gg#\LL
.	48ff#\
.	48ee#\JJJ
=6-	=6-
.	32qqee#y\LLL
.	32qqff#\
.	32qqgg#\JJJ
64GG#\LLLL 64B#X	8.f#\L 8.b#X 8.ff#
64AA\	.
64AA#X\	.
64BBny\	.
64BB\	.
64BB#X\	.
64BB#\	.
64C#\JJJJ	.
8ryy	.
.	16f#\Jk 16b#
4CC#/ 4GG# 4C#	8.c#\L 8.e#y 8.cc#
.	128%3ccc#'\LL
.	128%3ccc#'\
.	128%3bb#X'\
8ryy	.
.	128%3bb#'\
.	128%3bbn'\
.	128%3aa'\
.	128%3aa'\
.	128%3gg#'\
8ryy	56gg#'\
.	56ff#'\
.	56ff#'\
.	56ee#X'\
.	56dd'\
.	56ee#'\
.	56ff#'\JJJ
88GG#\LLL 88B#X	4f#\ 4b# 4ff#
88AA#\	.
88BB#X\	.
88AA#\	.
88BB#\	.
88C#\	.
88Dny\	.
88C#\	.
88D\	.
88E#X\	.
88F#\	.
88E#\	.
88F#\	.
88G#\	.
88A\	.
88G#\	.
88A\	.
88B#X\	.
88c#\	.
88B#\	.
88c#\	.
88d\JJJ	.
=7-	=7-
4ryy	64e#X\LLLL
.	64d\
.	64e#\
.	64f#\
.	64g#\
.	64f#\
.	64g#\
.	64a\
.	64b#X\
.	64a\
.	64b#\
.	64cc#\
.	64dd\
.	64cc#\
.	64dd\
.	64ee#X\JJJJ
!	!LO:TX:t=P:problem=mixed beam
8.ryy	8.ff#;\L
16GG#\	16F#</Jk 16B#X<
!!LO:LB:g=original
=8-	=8-
48CC#\LLL	8ryy
48GG#\	.
48C#\JJJ	.
!LO:TX:t=P:problem=mixed beam	!
48E#X/LLL	.
48c#>\	.
48g#>\JJJ	.
*2\right	*
*tremolo	*tremolo
!	!LO:TX:b:t=tremolo
!LO:TX:t=P:problem=mixed beam	!LO:TX:a:t=ms
64e#X>\LLLL 64cc#>	2ryy
!LO:TX:b:t=md	!
64E#X</ 64c#<	.
64e#>\ 64cc#>	.
64E#X</ 64c#<	.
64e#>\ 64cc#>	.
64E#X</ 64c#<	.
64e#>\ 64cc#>	.
64E#X</ 64c#<	.
64e#>\ 64cc#>	.
64E#X</ 64c#<	.
64e#>\ 64cc#>	.
64E#X</ 64c#<	.
64e#>\ 64cc#>	.
64E#X</ 64c#<	.
64e#>\ 64cc#>	.
64E#X</ 64c#<	.
64e#>\ 64cc#>	.
64E#X</ 64c#<	.
64e#>\ 64cc#>	.
64E#X</ 64c#<	.
64e#>\ 64cc#>	.
64E#X</ 64c#<	.
64e#>\ 64cc#>	.
64E#X</ 64c#<	.
64e#>\ 64cc#>	.
64E#X</ 64c#<	.
64e#>\ 64cc#>	.
64E#X</ 64c#<	.
64e#>\ 64cc#>	.
64E#X</ 64c#<	.
64e#>\ 64cc#>	.
64E#X</JJJJ 64c#<	.
*Xtremolo	*Xtremolo
8ryy	40c#\LLL
.	40d\
.	40eny\
.	40f#\
.	40g#\JJJ
.	.
4FF#y\ 4C# 4F#	8.f#\L 8.a
.	32a\Jkk 32cc#
.	32ryy
=9-	=9-
4A\ 4c# 4f#	8.a\L 8.cc#
.	32g#\Jkk 32b#X
.	32g#\LLL 32b#
32ryy	32a\JJJ 32cc#
4GG#\ 4F#	8.g#\L 8.b#
.	32f#\Jkk 32a
!	!LO:TX:t=P:problem=krzyżyk ołówkiem
.	20e#X\LL
32ryy	.
.	20f#\
8.ryy	.
.	20g#\
.	20a\
.	20b#\JJ
4F#\ 4G# 4B#X	8.f#\L 8.a
.	48g#\LL
.	48f#\
.	48e#\JJJ
=10-	=10-
8C#\ 8E#X 8B#X	32e#X\LLL
.	32f#\
.	32g#\
.	32a\
8ryy	32g#\
.	32f#\
!	!LO:TX:t=P:problem=krzyżyk ołówkiem
.	32e#X\
.	32Bny\
64C#\LLLL	64E#X\L
64CC#\	64Bny\
64C#\	64d\
64D\	64e#\
64D#X\	64e#\
64D#\	64d\
64E#\	64e#\
64E#\	64e#\
64E#X\	64e#\
64E#\	64e#\
64E#\	64e#\J
64F#\JJJJ	32.e#\
16ryy	.
.	32f#\JJJ
!LO:TX:t=P:problem=mixed beam	!
8FFF#/L 8FF#	4F#/ 4A 4f#
8F#\J 8A	.
.	32qqeny\ 32qqcc# 32qqeeny
4AnyA\ 4Eny 4c#	4eny\ 4cc# 4eeny
=11-	=11-
.	32qqa\ 32qqff# 32qqaa
4A\ 4f#	4a\ 4ff# 4aa
.	32qqg#\ 32qqeeny 32qqgg#
4A#X\ 4eny	4g#\ 4ee 4gg#
.	4qqf#\ 4qqdd 4qqff#
8Bny\ 8d	8f#\ 8dd 8ff#
8ryy	8ryy
!!LO:LB:g=original
=12-	=12-
!	!LO:N:vis=32
8Dny\L 8B 8dny	64cc#X\LLLL 64ee#X
!	!LO:N:vis=32
.	64dd\ 64ff#
!	!LO:N:vis=32
.	64een\ 64gg#
!	!LO:N:vis=32
.	64dd\ 64ff#
!	!LO:N:vis=32
.	64cc#\ 64ee
!	!LO:N:vis=32
.	64b\ 64dd
!	!LO:N:vis=32
.	64a#X\ 64cc#
!	!LO:N:vis=32
.	64b\J 64dd
16D#X\Jk	48cc#\ 48ee
.	48b\ 48dd
.	48a#\JJJ 48cc#
8Eny\L 8G# 8B	4g#\ 4b
32%3D#\L	.
32%3E\JJ	.
.	16ryy
.	32qqfn\ 32qqdd
24GG#\LL 24B	4fny\ 4dd
24AA\	.
24AA#X\	.
24BBny\	.
24BB#X\	.
24C#\JJ	.
.	32qqe#X\ 32qqcc#
4.C#\ 4.G#	4.e#y\ 4.cc#
=13-	=13-
.	.
!	!LO:N:vis=16
.	32qqb\
8Dny\ 8G#	8e#\ 8b
56E\LLL 56c#	56any'\LLL 56ee
56B#X\	56dd#X'\
56Bn\	56ddn'\
56A#X\	56cc#'\
56An\	56ccn'\
56G#\	56b'\
56F##X\JJJ	56a#X'\JJJ
.	32qqd\ 32qqe# 32qqb
8EEny\L 8G#	4.d\ 4.e# 4.b
20FF#\L	.
20FF#X\	.
20GGn\	.
20GG#X\	.
20AAny/JJ	.
.	32qc#\ 32qany
4AAAny\ 4AAny 4E 4Any	4c#;\ 4any
=14-	=14-
8Any\	8any\ 8cc#y
32qqF#y\ 32qqd	32qqany\ 32qqff#
4F#y\ 4d	4any\ 4ff#
32qqE\ 32qqc#	32qqany\ 32qqee
8E\L 8c#	4any\ 4ee
8D#X\J	.
.	32qqg#\ 32qqdd
8Dn\L 8B	8g#\L 8dd
24EE\L	24cc#\L
24EE#X\	24dd\
24FF#\	24ee\
24GGn\	24dd\
24GG#X\	24cc#\
24GG#\JJ	24b#X\JJ
=15-	=15-
32qqAAAny\	32qqany\ 32qqcc#y
4C#\ 4Any	8.a\L 8.cc#
.	80cc#'\LLL
.	80dd#X'\
.	80ee#X'\
.	80ff#'\
.	80gg#'\JJJJ
4.F#\ 4.c# 4.f#	4.cc#\ 4.aa
8ryy	48gg#\LLL
.	48aa\
.	48bb\
.	48aa\
.	48gg#\
.	48ff#\JJJ
!!LO:LB:g=original
=16-	=16-
8G#t\ 8B#X	32ee#X\LLL
.	32ff#\
.	32gg#\
.	32ff#\
8ryy	32een\
.	32ddny\
.	32cc#\
.	32b#X\JJJ
16GG#\LL 16B#X	8.b#\L 8.ff#
16AAny\	.
16BB#X\	.
16C#\JJ	16f#y\Jk 16b#
.	32qqc#\ 32qqe#X 32qqcc#
8.CC#\L 8.GG# 8.C#	4c#\ 4e# 4cc#
48E#X\LL	.
48F#\	.
48G#\JJJ	.
*	*2\right
8.A\L	2B#X\ 2f# 2b#X
96G#\LLL	.
96F#\	.
96En\	.
96D\	.
96C#\	.
96BB#X\JJJJ	.
=17-	=17-
32qqBB#\	.
8.F#\L	.
16BB#\Jk	.
16.CC#\ 16.GG# 16.C#	4c#\ 4e#X 4cc#
64C#\LLLL	.
64D\	.
64C#\	.
64D\	.
64E#X\	.
64F#\	.
64E#\	.
64F#\J	.
32G#\JJJ	.
224A\LLLLL	2B#X\ 2f# 2b#X
!LO:SIC:v:s=224B#\	!
224Bny\	.
224A\	.
224G#\	.
224F#\	.
224G#\	.
224F#\	.
224En\	.
224D\	.
224E\	.
224D\	.
224C#\	.
224BB#X\	.
224C#\	.
224BB#\	.
224AA\	.
224GG#\	.
224AA\	.
224GG#\	.
224FF#\	.
224EEny\	.
224FF#\	.
224EE\	.
224DD\	.
224CC#\	.
224DD\	.
224CC#\	.
224BBB#X\JJJJJ	.
8.FF#\L	.
16BBB#\Jk	.
64CCC#\LLLL	.
64CC#\	.
64GG#\	.
64C#\	.
64E#X\	.
64G#\	.
64c#\	.
64g#\JJJJ	.
=18-	=18-
*tremolo	*
!	!LO:TX:a:t=trem.
!	!LO:TX:a:t=ms
64e#X>\LLLL 64cc#>	2ryy
!LO:TX:b:t=md	!
64c#/ 64g#	.
64e#>\ 64cc#>	.
64c#/ 64g#	.
64e#>\ 64cc#>	.
64c#/ 64g#	.
64e#>\ 64cc#>	.
64c#/ 64g#	.
64e#>\ 64cc#>	.
64c#/ 64g#	.
64e#>\ 64cc#>	.
64c#/ 64g#	.
64e#>\ 64cc#>	.
64c#/ 64g#	.
64e#>\ 64cc#>	.
64c#/ 64g#	.
64e#>\ 64cc#>	.
64c#/ 64g#	.
64e#>\ 64cc#>	.
64c#/ 64g#	.
64e#>\ 64cc#>	.
64c#/ 64g#	.
64e#>\ 64cc#>	.
64c#/ 64g#	.
64e#>\ 64cc#>	.
64c#/ 64g#	.
64e#>\ 64cc#>	.
64c#/ 64g#	.
64e#>\ 64cc#>	.
64c#/ 64g#	.
64e#>\ 64cc#>	.
64c#/JJJJ 64g#	.
*Xtremolo	*
!!LO:LB:g=original
=19-	=19-
!	!LO:TX:a:t=Pocho più vivo
.	32qqc#\ 32qqany 32qqcc#
8AAAny/ 8AA	8c#\ 8any 8cc#
.	32qqeny\ 32qqcc# 32qqee
8C#\ 8A 8c#	8eny\ 8cc# 8ee
.	32qqbny\ 32qqdd
8D\ 8A 8d	8bny\ 8dd
.	32qqa\ 32qqcc#
8D#X\ 8A 8d#X	8a\ 8cc#
8Eny\ 8G# 8Bny	72g#\LLLL 72b
.	72a#X\
.	72b\
.	72cc#\
.	72dd\
.	72ee\
.	72ff#\
.	72gg#\
.	72aa\JJJJ
!	!LO:N:vis=4.
8.EE\L 8.G#	8.gg#\ 8.bb
!	!LO:N:vis=32
16FF#\L 16A	64gg#\LLLL 64bb
!	!LO:N:vis=32
.	64ff#\JJJJ 64aa
!	!LO:N:vis=16
.	32r
!	!LO:N:vis=32
16GG#\ 16B	64ff#\LLLL 64aa
!	!LO:N:vis=32
.	64ee\JJJJ 64gg#
!	!LO:N:vis=16
.	32r
!	!LO:N:vis=32
16BBny\JJ 16d#	64ee\LLLL 64gg#
!	!LO:N:vis=32
.	64dd\JJJJ 64ff#
!	!LO:N:vis=16
.	32r
=20-	=20-
!	!LO:N:vis=32
8AA\ 8c#	64cc#\LLLL 64ee
!	!LO:N:vis=32
.	64ddn\
!	!LO:N:vis=32
.	64ee\
!	!LO:N:vis=32
.	64ff#\
!	!LO:N:vis=32
.	64gg#\
!	!LO:N:vis=32
.	64ff#\
!	!LO:N:vis=32
.	64gg#\
!	!LO:N:vis=32
.	64aa\JJ
32Dny\LLL 32B	24aa\
32A#X\	.
.	24ee#X\
32B\	.
.	24ff#\
32cn\J	.
80%3c#X\	64%3cc#\
80%3cn\	.
.	64%3dd\
80%3d\	.
.	64%3b\
80%3d#X\	.
.	64%3dd\JJ
80%3d#X\JJ	.
32eny\LLL	16ff#'\LL
32EE\ 32E	.
32EE\ 32E	16e#y'\JJ 16g# 16ee#
32EE#X\ 32E#X	.
32EE#\ 32E#	16d'\ 16g# 16dd
32FF#\ 32F#	.
32FF#\ 32F#	16G#'\ 16d 16g#
32GG#\JJJ 32G#	.
16AA\ 16Eny	16A\ 16c# 16any
8.AA\ 8.Eny	8.A\L 8.c# 8.a
16EEny\ 16Eny	48eny\LL 48g#
.	48c#\ 48a
.	48e\JJJ 48g#
=21-	=21-
!LO:TX:t=P:problem=mixed beam	!
8AA\L 8Eny	4A\ 4c# 4a
8EEny/J	.
.	32qqc#\ 32qqa 32qqcc#
8AA\ 8Eny 8Any	8c#\ 8a 8cc#
.	32qqa\ 32qqcc# 32qqaa
8FF#\ 8C# 8Any	8a\ 8cc# 8aa
.	32qqg#\ 32qqcc# 32qqgg#
8GG#\ 8C# 8Bny	8g#\ 8cc# 8gg#
.	32qqf#\ 32qqcc# 32qqff#
8AA\ 8C# 8c#y	8f#\ 8cc# 8ff#
!!LO:LB:g=original
=22-	=22-
8BB\ 8C# 8c#y	80e\LLLL 80cc# 80ee#X
.	80ee#\
.	80ff#\
.	80ee#\
.	80dd##X\
.	80ee#\
.	80ff#\
.	80gg#\
.	80b\
.	80cc#\JJJJ
32EE#X\LLL 32E#X	8.dny\L [8.b [8.ddny
32CC#\ 32C#	.
32DD\ 32D	.
32DD#X\ 32D#X	.
32EE#\ 32E#	.
32EE#X\JJJ 32E#X	.
16FF#\LL 16F#	32b'\LL] 32dd]
.	32aM'\ 32cc#
16Any\JJ 16f#	32g#'\ 32b#X
.	32a'\ 32cc#
16GG#\LL 16G#	32a'\ 32cc#
.	32g#'\ 32bn
16Bny\JJ 16e#X	32f##X'\ 32a#X
.	32g#'\JJJ 32b
8AA\ 8F# 8c#	64f##\LLLL 64an
.	64g#\
.	64a\
.	64b\
.	64cc#\
.	64dd#X\
.	64ee#X\
.	64ff#\JJ
32BB\LLL 32G#	24ff#\
32F##X\	.
.	24cc#\
32G#\	.
.	24ddn\
32A\J	.
80%3A#X\	64%3a#X\
80%3G#\	.
.	64%3b\
80%3A#\	.
.	64%3g#\
80%3B\	.
.	64%3b\JJ
80%3B#X\JJ	.
=23-	=23-
32c#\LLL	16b\
32CC#\J 32C#	.
24CC#\ 24C#	8.Bny\L 8.e#X 8.cc#
24DDny\ 24Dny	.
24DD\ 24D	.
24DD#\ 24D#X	.
24EEny\ 24Eny	.
.	16B\Jk 16e#
24EE#X\JJ 24E#X	.
16FF#\ 16C#	16F#/KL 16A 16f#y
8.FF#\ 8.C#	8.F#/J 8.A 8.f#
16CC#\ 16C#	48c#/LLL 48e#X
.	48A/ 48g#
.	48c#/JJJ 48e#
8FF#\L 8C#	4F#/ 4A 4f#
8FFF#\J	.
.	32qqc#/ 32qqany 32qqcc#
8AAA\ 8AA	8c#/ 8any 8cc#
=24-	=24-
.	32qqen/ 32qqcc# 32qqeen
8C#\ 8Any 8c#	8eny/ 8cc# 8eeny
.	32qqb/ 32qqdd
8Dny\ 8Any 8dny	8b/ 8dd
.	32qqany/ 32qqcc#
8D#X\ 8Any 8d#X	8any/ 8cc#
8Eny\ 8G# 8Bny	36g#\LLL 36b
.	36a#X\
.	36b\
.	36cc#\
.	36dd\
8ryy	.
.	36ee\
.	36ff#\
.	36gg#\
.	36aa\JJJ
4.EE#\ 4.G#	4.gg#\ 4.bb
!!LO:PB:g=original
=25-	=25-
!	!LO:N:vis=32
16FF#\LL 16Any	64gg#\LLLL 64bb
!	!LO:N:vis=16
.	64ff#\JJJJ 64aa
!	!LO:N:vis=32
.	32r
!	!LO:N:vis=32
16GG#\ 16Bny	64ff#\LLLL 64aa
!	!LO:N:vis=32
.	64ee\JJJJ 64gg#
!	!LO:N:vis=16
.	32r
!	!LO:N:vis=32
16BB\JJ 16dny	64ee\LLLL 64gg#
!	!LO:N:vis=32
.	64dd\JJJJ 64ff#
!	!LO:N:vis=16
.	32r
8AA\ 8c#	64ee\LLLL 64gg#
.	64dd#X\
.	64ee\
.	64ff#\
.	64gg#\
.	64ff#\
.	64gg#\
.	64aa\J
72Dny\LLLL 72B	56aa\
72A#X\	.
.	56ee#X\
72B\	.
.	56ff#\
72cn\	.
.	56cc#\
72c#X\	.
72cn\	.
.	56dd#\
72c#X\	.
.	56b\
72d\	.
.	56dd#\JJJ
72d#X\JJJJ	.
32eny\LLL	16ff#\
32EEny\ 32Eny	.
32EE\ 32E	16eny\ 16g# 16eeny
32EE#X\ 32E#X	.
32EE#\ 32E#	16dny\ 16g# 16dd#
32FF#\ 32F#y	.
32FF#\ 32F#	16G#\ 16d 16g#
32GG#\JJJ 32G#	.
16AA\ 16Eny	16A\ 16c# 16any
!LO:N:vis=8	!
8.AA\L 8.Eny	8.A\L 8.c# 8.a
16EEny\Jk 16Eny	48eny\LL 48g#
.	48c#\ 48a
.	48e\JJJ 48g#
=26-	=26-
!LO:TX:t=P:problem=mixed beam	!
8AA\L 8Eny	4A/ 4c# 4a
8AAA/J	.
!	!LO:TX:t=P:problem=mixed beam
.	32qqA/ 32qqfn 32qqa
8FFn\L 8Cn 8Fn	16.A/LL 16.f 16.a
.	32ffny\JJk
8Any\J 8fn	16.ccn\LL 16.ffny
.	32eeny\JJk
.	32qqcc\LLL 32qqee
.	32qqffn\JJJ
8B-X\L 8f	16cc\LL 16ee
.	16b-X\JJ 16ddny
.	32qqb-\LLL 32qqdd
.	32qqee\JJJ
8A\J 8f	16b-\LL 16dd
.	16a\JJ 16ccn
!!LO:LB:g=original
=27-	=27-
8Gn\L 8fn	64g#\LLLL 64ccn
.	64b-X\
.	64a\
.	64b-\
.	64a\
.	64b-\
.	64cc\
.	64cc#X\JJJJ
8Cn\J 8B-X	80eny\LLLL 80b- 80eeny
.	80ddny\
.	80cc#\
.	80dd\
.	80cc#\
.	80dd\
.	80ccn\
.	80b-\
.	80a\
.	80g#X\JJJJ
32FFn\LLL 32Fn 32A	8cn/L 8fn 8a
32E\	.
32F\	.
32G#X\JJJ	.
64AA\LLLL 64E 64A	8c#X/J 8gn 8a
64B-\	.
64A\	.
64G#\	.
64A\	.
64Gn\	.
64F\	.
64E\JJJJ	.
32D\LLL 32F	32dny/LLL 32f
32E\	32a/JJJ
.	32qqa/
32F\	32g#X/LLL
.	8qqg#/
32G#X\	32fn/JJJ
.	8qqg#/
32A\	32f/LLL
.	32qqf/
32G#\	32e/JJJ
.	32qqe/
32A\	32d/LLL
.	32qqd/
32B-\JJJ	32c#/JJJ
96AA\LLLL 96D 96Fn	8A/ 8d 8fn
96GG#X\	.
96AA\	.
96BB-X\	.
96C\	.
96BB-\	.
96C\	.
96D\	.
96E\	.
96D\	.
96E\	.
96F\JJJJ	.
8AA\ 8Gn	32B-X/LLL 32c# 32f
.	32e/
.	32d/
.	32c#/JJJ
=28-	=28-
16DDny\KL 16D	16Gn/KL 16B- 16d
8.DD\J 8.D	8.G/J 8.B- 8.d
16GGn\ 16D	48c#/LLL
.	48G/ 48-B 48e
.	48c#/JJJ
!	!LO:SIC:v:n=1:s=4.Fn/
8DD\L 8AA 8D	4.F#/ 4.A 4.d
8D\J 8Fny	.
8ryy	.
16ryy	16a/
!	!LO:SIC:v:n=1:s=16.cn\LL
8FFn\L 8Cn 8A	16.c#\LL 16.fn 16.a
.	32ffn\JJk
8A\J 8fn	16.ccn\LL 16.ff
.	32ee\JJk
!!LO:LB:g=original
=29-	=29-
.	32qqccn\LLL 32qqee
.	32qqffn\JJJ
8B-X\L 8fn	16cc\LL 16ee
.	16b-X\JJ 16dd
.	32qqb-\LLL 32qqdd
.	32qqee\JJJ
8A\J 8f	16b-\LL 16dd
.	16a\JJ 16ccn
8Gn\L 8f	64gn\LLLL 64cc
.	64b-\
.	64a\
.	64b-\
.	64a\
.	64b-\
.	64cc\
.	64cc#X\
8Cn\J 8B-	80e\ 80b- 80ee
.	80dd\
.	80cc#\
.	80dd\
.	80cc#\
.	80dd\
.	80ccn\
.	80b-\
.	80a\
.	80g#X\JJJJ
32FFn\LLL 32D 32Fn	8cn/L 8fn 8a
32E\	.
32F\	.
32G#X\JJJ	.
64AA\LLLL 64E 64A	8c#X/J 8gn 8a
64B-\	.
64A\	.
64G#\	.
64A\	.
64Gn\	.
64F\	.
64E\JJJJ	.
32D\LLL 32Fn	32d'/LLL 32f
32E\	32a/JJJ
32F\	128a/LLLLL
.	128g#X/JJJJJ
!	!LO:N:vis=32
.	64r
32G#X\JJJ	128g#/LLLLL
.	128f/JJJJJ
!	!LO:N:vis=32
.	64r
32A\LLL	128g#/LLLLL
.	128f/JJJJJ
!	!LO:N:vis=32
.	64r
32G#\	128f/LLLLL
.	128e/JJJJJ
!	!LO:N:vis=32
.	64r
32A\	128e/LLLLL
.	128d/JJJJJ
!	!LO:N:vis=32
.	64r
32B-X\JJJ	64d/LLLL
.	64c#/JJJJ
=30-	=30-
48AA\LLLL 48D 48F#y	8A/ 8d 8fny
48GG#X\	.
48AA\	.
48BB-X\	.
48C#\	.
48BB-\	.
48C#\	8ryy
48D\	.
48E\	.
48D\	.
48E\	.
48Fn\JJJJ	.
8AA\ 8Gn	32B-X/LLL 32c# 32f
.	32r
.	32e/
.	32d/
32ryy	32c#/JJJ
16DD\KL 16D	16Gn/KL 16B- 16d
8.DD\J 8.D	8.G/J 8.B- 8.d
32ryy	32c#/LLL
!LO:SIC:v:n=1:s=16GGn\	!
16GG#\ 16D	32G/ 32B- 32e
.	32c#/JJJ
!!LO:LB:g=original
=31-	=31-
8DD\L 8AA 8D	4Fn/ 4A 4d
8D\J 8Fn	.
.	32qqdd\ 32qqff#X
8DD/ 8AA 8D	8f#y\ 8dd 8ff#y
.	32qqa\ 32qqff# 32qqaa
8F#X\ 8dny 8f#y	8a\ 8ff# 8aa
.	32qqee\ 32qqggn
8Gn\ 8d 8f#	8ee\ 8ggny
.	32qqdd\ 32qqff#
8G#X\ 8d 8f#	8dd\ 8ff#
32A\LLL 32c# 32e	32cc#y\LLL 32ee
32AA\JJJ	32gg\JJJ 32bb
16r	16r
8ryy	8ryy
=32-	=32-
32qqAA\	32qqggny/ 32qqbb
4.G#\ 4.c#	4.cc#\ 4.ee
16ryy	64ee\LLLL
.	64dd#X\
.	64ee\
.	64ff#\
16AA\	64ggn\
.	64aa\
.	64bb\
.	64ccc#\JJJJ
32FF#y'\LLL 32A	16eee'\
32A#X'\	.
.	32qqeee/
32A#'\	16ddny'\ 16ddd
32Bny'\	.
.	32qqddd/
32GGn'\ 32B	16cc#'\ 16ccc#
32c#'\	.
.	32qqccc#/
32c#'\	16bny'\ 16bb
32d'\JJJ	.
.	32qqbb/
32AA'\LLL 32c#	16a'\ 16aa
32B'\	.
.	32qqaa/
32B'\	16g#X'\ 16gg#X
32B-X'\	.
.	32qqgg#/
32AA'\ 32Bny	16gn'\ 16ggn
32A#'\	.
32A#'\	16g'\ 16cc#
32Gn'\JJJ	.
=33-	=33-
16DD\KL 16AA 16F#	16d\KL 16a 16dd
8.DD\J 8.AA 8.F#	8.d\J 8.a 8.dd
24ryy	24cc#\LL
24AA\ 24G#y	24c#\ 24b-X 24ee
24ryy	24cc#\JJ
8DD\L 8AA 8F#	4d\ 4a 4dd
8F#\J 8d	.
8ryy	8ryy
!!LO:LB:g=original
=34-	=34-
8FF#\L 8D 8F#	16f#\ 16dd 16ff#
.	8f#\L 8dd 8ff#
!LO:TX:a:t=molto espress.	!
8F#\J 8d	.
.	16g#X\Jk 16gg#X
16ryy	32aa/LLL
.	32bb/JJJ
!LO:TX:t=P:problem=mixed beam	!
8CC#/L 8C#	64a\LLLL 64aa
.	64g#\ 64gg#
.	64f#\ 64ff#
.	64e#X\JJJJ 64ee#X
.	8.f#\L 8.ff#
8E#X\J 8Any 8c#	.
16ryy	16gg#\Jk
!LO:TX:t=P:problem=mixed beam	!
8AAA/L 8EE 8Cn	64a\LLLL 64een 64aa
.	64gg#\
.	64aa\
.	64bb\
.	64a\ 64ee 64cccn
.	64bb\
.	64aa\
.	64gg#\JJ
8Eny\J 8G# 8d	16g#\ 16ee 16gg#
.	16bb\
16ryy	16aa\
16ryy	16gg#\JJ
=35-	=35-
8AA\L 8A	8.a\L 8.ee 8.aa
8E\J 8A 8cn	.
.	16bb\Jk
16DD#X\LL 16F#	16a\LL 16aa 16cccn
.	32qqccc#y\
16EE#X\ 16G#	16g#\ 16gg# 16bb
.	32qqbb\
16FF#\ 16A	16f#\ 16ff# 16aa
.	32qqaa\
16GG#y\ 16B	16e#X\ 16ee#X 16gg#
.	32qqgg#\
16AA\ 16B#X	16d#X\ 16dd#X 16ff#
.	32qqff#\
16BBny\ 16d	16dn\ 16ddn 16ee#X
.	32qqee#\
16BB#X\ 16d#X	16B#X\ 16b#X 16dd#X
.	32qqdd#\
16D\JJ 16e#X	16Bn\JJ 16bn 16ddn
=36-	=36-
!LO:TX:t=P:problem=mixed beam	!
8CC#/L 8C#y	16c#\ 16a 16cc#
.	[8aa\L
8B#y\J 8d#y 8e#X	.
.	64b\LLL 64dd 64aa]
.	64gg#\
.	64ff#\
.	64ee#X\JJJJ
8.ryy	32%3ee#\LL
.	32%3gg#\JJ
16FF#\KL 16D 16B#	32b\LLL 32dd 32ff#
.	32ee#\JJJ
8.A\J 8.c# 8.f#	4a\ 4cc# 4ff#
16ryy	.
!!LO:LB:g=original
=37-	=37-
16ryy	16eee#X\
8DDny\L 8AA 8F#	16ff#\ 16fff#
.	8.f#\L 8.ff#
8F#\J 8A 8dny	.
8ryy	16g#\Jk 16gg#
.	32aa/LLL
.	32bb/JJJ
8CC#\L 8AA 8C#	64a\LLLL 64aa
.	64g#\ 64gg#
.	64f#\ 64ff#
.	64e#X\JJJJ 64ee#X
.	8.f#\L 8.ff#
8E#X\J 8A 8c#	.
16ryy	16gg#\Jk
8AAA\L 8Cn	56a\LLL 56een 56aa
.	56gg#\
.	56aa\
.	56bb\
.	56a\ 56ee 56cccn
.	56bb\
.	56aa\
8Eny\J 8G# 8d	48gg#\
.	48gg#\
.	48g#\ 48ee 48gg#
.	48bb\
.	48aa\
.	48gg#\JJJ
=38-	=38-
8AA\L 8A	8.a\L 8.ee 8.aa
8E\J 8A 8cn	.
.	16bb\Jk
16DD#X\LL 16F#	64a\LLLL 64aa 64cccn
.	64aa\ 64ccc
.	64ddd\
.	64aa\JJJJ 64ccc
16EE#X\ 16G#	64g#\LLLL
.	64gg#\ 64bb
.	64aa\ 64ccc
.	64gg#\JJJJ 64bb
16FF#\ 16A	64f#\LLLL
.	64ff#\ 64aa
.	64bb\
.	64ff#\JJJJ 64aa
16GG#\ 16Bny	64e#X\LLLL
.	64ee#X\ 64gg#
.	64aa\
.	64ee#\JJJJ 64gg#
16AA\ 16B#X	64d#X\LLLL
.	64dd#X\ 64ff#
.	64gg#\
.	64dd#\JJJJ 64ff#
16BBny\ 16d	64dn\LLLL
.	64ddn\ 64ee#X
.	64ff#\
.	64dd\JJJJ 64ee#
16BB#X\ 16d#X	64B#X\LLLL
.	64b#X\ 64dd#X
.	64ee#\
.	64b#\JJJJ 64dd#
16D\JJ 16e#X	64Bn\LLLL
.	64bn\ 64ddn
.	64een\
.	64b\JJJJ 64dd
!!LO:LB:g=original
=39-	=39-
8CC#\L 8C#y	16c#\ 16a 16cc#
.	[4aa\
8.ryy	.
8Bny\J 8dny 8e#X	32b\LLL 32dd 32aa]
.	32gg#\
.	32ff#\
.	32ee#X\JJJ
16ryy	32ee#\LLL
.	32gg#\JJJ
16FF#\KL 16D 16B	32b\LLL 32dd 32ff#
.	32ee#\JJ
8.A\J 8.c#y 8.f#	8.a\J 8.cc# 8.ff#
!!LO:PB:g=original
=40||	=40||
*>B	*>B
*k[f#c#g#]	*k[f#c#g#]
*M2/4	*M2/4
!	!LO:TX:a:t=Trio.
8FF#\L	8a\ 8cc#
8A\J 8f#	8r
8F#\L	4a\ 4cc#
8A\J 8f#	.
=41	=41
8DD\L	8a\ 8ff#
8F#\J 8d	8r
8D\L	4a\ 4ff#
8F#\J 8d	.
=42	=42
8EE\L	8g#\ 8ee
8G#\J 8d	4g#\ 4ee
8GG#\L	.
8G#\J 8d	8g#\ 8dd
=43	=43
.	32qqdd/
8AA\L	8a\L 8cc#
8A\J 8c#	8g#\J 8b#X
8C#\L	4a\ 4cc#
8A\J 8c#	.
=44	=44
8AA\L	8a\ 8cc#
8A\J 8c#	8r
8C#\L	4a\ 4cc#
8A\J 8c#	.
=45	=45
8FF#\L	8cc#\ 8aa
8A\J 8f#	8r
8F#\L	4cc#\ 4aa
8A\J 8f#	.
=46	=46
8GG#\L	8b#X\ 8gg#
8B#X\J 8f#	4b#\ 4gg#
8BB#X\L	.
8B#\J 8f#	8b#\ 8ff#
=47	=47
.	32qqff#/
8C#\L	8cc#\L 8ee#X
8c#\J 8e#X	8b#X\J 8dd##X
8E#X\L	4cc#\ 4ee#
8c#\J 8e#	.
!!LO:LB:g=original
=48	=48
8D\L	8a\ 8ff#
8A\J 8d	8r
8F#\L	8a\ 8ff#
8A\J 8d	8r
=49	=49
8EE\L	4.g#\ 4.ee
8G#\J 8d	.
8GG#\L	.
8G#\J 8d	8g#\ 8dd
=50	=50
8AA\L	8a\L 8cc#
8A\J 8c#	8a\J 8cc#
8BB\L	4f#\ 4dd
8G#\J 8d	.
=51	=51
8C#\L	4.e#X\ 4.cc#
8G#\J 8c#	.
8E#X\L	.
8G#\J 8c#	8e#\ 8b
=52	=52
8F#\L	16a\LL
.	16g#\
8A\J 8c#	16f#\
.	16a\
8F#\L	16b\
.	16a\
8B\J 8d	16g#\
.	16b\JJ
=53	=53
8F#\L	16b#X\LL
.	16bn\
8B#X\J 8d#X	16a\
.	16b#X\
8F#\L	16cc#\
.	16b#\
8d#\J 8f#	16a##X\
.	16b#\JJ
=54	=54
8C#\L	8e#X\ 8cc#
8G#\J 8B 8c#	4e#\ 4cc#
8E#X\L	.
8G#\J 8B 8c#	8e#/
=55	=55
.	32qqg#/
8F#\L 8A 8c#	8f#/L
8E#X\J 8A 8c#	8e#X/J
4F#\ 4A 4c#	4f#/
=56:|!	=56:|!
*>C	*>C
8FF#/ 8C# 8F# 8A#X	16ff#\ 16aa#X 16fff#
.	8ryy
8a#X>\L	.
.	8f#/L 8ff#
8a#>\	.
.	8f#/ 8ff#
8a#>\J	.
.	8f#/Jk 8ee#X
!!LO:LB:g=original
=57	=57
8a#X>\L	.
.	8f#/L 8een
8a#>\	.
.	8f#/ 8dd#X
8a#>\	.
.	8f#/ 8ddn
8a#>\J	.
!	!LO:N:vis=8
.	16f#/Jk 16cc#
=58	=58
8BB\ 8F# 8B	8d/ 8f# 8b
4BB\ 4F# 4B	4d/ 4f# 4b
8BB\ 8F# 8A#X	8d/ 8f# 8a#X
=59	=59
.	32qqcc#/
8BB\L 8F# 8B	8d\L 8f# 8b
8BB\J 8F# 8A#X	8d\J 8f# 8a#X
4BB\ 4F# 4B	4d\ 4f# 4b
=60	=60
16EE\LL 16E	8d\ 8g# 8dd
16D#X\	.
16E\	8r
16F#\	.
16G#\	8d\ 8g# 8dd
16A\	.
16B\	8r
16G#\JJ	.
=61	=61
16AA\LL 16A	2c#\ 2a 2cc#
16G#\	.
16Gn\	.
16F#\	.
16Fn\	.
16E\	.
16D#X\	.
16E\JJ	.
=62	=62
16CC#\LL 16C#	8B/ 8e#X 8b
16BB#X\	.
16C#\	8r
16D#X\	.
16E#X\	8B/ 8e# 8b
16F#\	.
16G#\	8r
16E#\JJ	.
=63	=63
16FF#\LL 16F#	2A/ 2f# 2a
16E#X\	.
16En\	.
16D#X\	.
16Dn\	.
16C#\	.
16BB#X\	.
16C#\JJ	.
!!LO:LB:g=original
=64	=64
8FF#/ 8C# 8F# 8A#X	16ff#\ 16aa#X 16fff#
.	8ryy
8a#X>\L	.
.	8f#/L 8ff#
8a#>\	.
.	8f#/ 8ff#
8a#>\J	.
.	8f#/Jk 8ee#X
=65	=65
8a#X>\L	.
.	8f#/L 8een
8a#>\	.
.	8f#/ 8dd#X
8a#>\	.
.	8f#/ 8ddn
8a#>\J	.
!	!LO:N:vis=8
.	16f#/Jk 16cc#
=66	=66
8BB\ 8F# 8B	8d/ 8f# 8b
4BB\ 4F# 4B	4d/ 4f# 4b
8BB\ 8F# 8A#X	8d/ 8f# 8a#X
=67	=67
.	32qqcc#/
8BB\L 8F# 8B	8d\L 8f# 8b
8BB\J 8F# 8A#X	8d\J 8f# 8a#X
4BB\ 4F# 4B	4d\ 4f# 4b
=68	=68
16EE\LL 16E	8d\ 8g# 8dd
16D#X\	.
16E\	8r
16F#\	.
16G#\	8d\ 8g# 8dd
16A\	.
16B\	8r
16G#\JJ	.
=69	=69
16AA\LL 16A	2c#\ 2a 2cc#
16G#\	.
16A\	.
16A#X\	.
16B\	.
16A#\	.
16B\	.
16B#X\JJ	.
=70	=70
4C#\ 4E#X 4B	16c#\LL 16g# 16cc#
.	16B#X\
.	16c#\
.	16d\
4r	16d#X\
.	16dn\
.	16d#X\
.	16e\JJ
=71	=71
4CC#/	16e#X\LL
.	16en\
.	16e#X\
.	16f#\
4r	16gn\
.	16f#\
.	16g\
.	16g#X\JJ
!!LO:LB:g=original
=72	=72
8FF#\L	8a\ 8cc#
8A\J 8f#	8r
8F#\L	4a\ 4cc#
8A\J 8f#	.
=73	=73
!LO:TX:t=P:problem=mixed beam	!
8DD/L	8a\ 8ff#
8F#\J 8d	8r
8D\L	4a\ 4ff#
8F#\J 8d	.
=74	=74
8EE\L	8g#\ 8ee
8G#\J 8d	4g#\ 4ee
8GG#\L	.
8G#\J 8d	8g#\ 8dd
=75	=75
.	32qqdd/
8AA\L	8a\L 8cc#
8A\J 8c#	8g#\J 8b#X
8C#\L	4a\ 4cc#
8A\J 8c#	.
=76	=76
8AA\L	8a\ 8cc#
8A\J 8c#	8r
8C#\L	4a\ 4cc#
8A\J 8c#	.
=77	=77
8FF#\L	8cc#\ 8aa
8A\J 8f#	8r
8F#\L	4cc#\ 4aa
8A\J 8f#	.
=78	=78
8GG#\L	8b#X\ 8gg#
8B#X\J 8f#	4b#\ 4gg#
8BB#X\L	.
8B#\J 8f#	8dd#X\ 8ff#
=79	=79
.	32qqff#/
8C#\L	8cc#\L 8ee#X
8c#\J 8e#X	8ccn\J 8een
8E#X\L	4cc#X\ 4ee#X
8c#\J 8e#	.
!!LO:LB:g=original
=80	=80
8D\L	8a\ 8ff#
8A\J 8d	8r
8F#\L	8a\ 8ff#
8A\J 8d	8r
=81	=81
8EE\L	4.g#\ 4.ee
8G#\J 8d	.
8GG#\L	.
8G#\J 8d	8g#\ 8dd
=82	=82
8AA\L	8a\L 8cc#
8A\J 8c#	8a\J 8cc#
8BB\L	4f#\ 4dd
8A\J 8d	.
=83	=83
8C#\L	4.e#X\ 4.cc#
8G#\J 8c#	.
8E#X\L	.
8G#\J 8c#	8e#\ 8b
=84	=84
8F#\L	16a\LL
.	16g#\
8A\J 8c#	16f#\
.	16a\
8F#\L	16b\
.	16a\
8B\J 8d	16g#\
.	16b\JJ
=85	=85
8F#\L	16b#X\LL
.	16bn\
8B#X\J 8d#X	16a\
.	16b#X\
8F#\L	16cc#\
.	16b#\
8d#\J 8f#	16a##X\
.	16b#\JJ
=86	=86
8C#\L	8e#X\ 8cc#
8G#\J 8B 8c#	4e#\ 4cc#
8E#X\L	.
8G#\J 8B 8c#	8e#\
=87	=87
.	32qqg#/
8F#\L 8A 8c#	8f#\L
8E#X\J 8A 8c#	8e#X\J
4F#\ 4A 4c#	4f#\
!!LO:LB:g=original
=88||	=88||
16FF#\\ 16C# 16F# 16A#X	16ff#\ 16aa#X 16fff#
16ryy	8ryy
8a#X>\L	.
.	8f#/L 8ff#
8a#>\	.
.	8f#/ 8ff#
8a#>\J	.
.	8f#/Jk 8ee#X
=89	=89
8a#X>\L	.
.	8f#/L 8een
8a#>\	.
.	8f#/ 8dd#X
8a#>\	.
.	8f#/ 8ddn
8a#>\J	.
!	!LO:N:vis=8
.	16f#/Jk 16cc#
=90	=90
8BB\ 8F# 8B	8d/ 8f# 8b
4BB\ 4F# 4B	4d/ 4f# 4b
8BB\ 8F# 8A#X	8d/ 8f# 8a#X
=91	=91
.	32qqcc#/
8BB\L 8F# 8B	8d/L 8f# 8b
8BB\J 8F# 8A#X	8d/J 8f# 8a#X
4BB\ 4F# 4B	4d/ 4f# 4b
=92	=92
16EE\LL 16E	8d\ 8g# 8dd
16D#X\	.
16E\	8r
16F#\	.
16G#\	8d\ 8g# 8dd
16A\	.
16B\	8r
16G#\JJ	.
=93	=93
16AA\LL 16A	2c#\ 2a 2cc#
16G#\	.
16Gn\	.
16F#\	.
16Fn\	.
16E\	.
16D#X\	.
16E\JJ	.
=94	=94
16CC#\LL 16C#	8B\ 8e#X 8b
16BB#X\	.
16C#\	8r
16D#X\	.
16E#X\	8B\ 8e# 8b
16F#\	.
16G#\	8r
16E#\JJ	.
!!LO:PB:g=original
=95	=95
16FF#\LL 16F#	2A/ 2f# 2a
16E#X\	.
16En\	.
16D#X\	.
16Dn\	.
16C#\	.
16BB#X\	.
16C#\JJ	.
=96	=96
8FF#\ 8C# 8F# 8A#X	16ff#\ 16aa#X 16fff#
.	8ryy
8a#X>\L	.
.	8f#/L 8ff#
8a#>\	.
.	8f#/ 8ff#
8a#>\J	.
.	8f#/Jk 8ee#X
=97	=97
8a#X>\L	.
.	8f#/L 8een
8a#>\	.
.	8f#/ 8dd#X
8a#>\	.
.	8f#/ 8ddn
8a#>\J	.
!	!LO:N:vis=8
.	16f#/Jk 16cc#
=98	=98
8BB\ 8F# 8B	8d/ 8f# 8b
4BB\ 4F# 4B	4d/ 4f# 4b
8BB\ 8F# 8A#X	8d/ 8f# 8a#X
=99	=99
.	32qqcc#/
8BB\L 8F# 8B	8d\L 8f# 8b
8BB\J 8F# 8A#X	8d\J 8f# 8a#X
4BB\ 4F# 4B	4d\ 4f# 4b
=100	=100
16EE\LL 16E	8d\ 8g# 8dd
16D#X\	.
16E\	8r
16F#\	.
16G#\	8d\ 8g# 8dd
16A\	.
16B\	8r
16G#\JJ	.
=101	=101
16AA\LL 16A	2c#\ 2a 2cc#
16G#\	.
16A\	.
16A#X\	.
16B\	.
16A#\	.
16B\	.
16B#X\JJ	.
=102	=102
16C#\LL 16E#X 16B	2c#\ 2g# 2cc#
16BB#X\	.
16C#\	.
16D\	.
16D#X\	.
16C##X\	.
16D#\	.
16E#\JJ	.
!!LO:LB:g=original
=103	=103
16E#X\LL	2r
16D##X\	.
16E#\	.
16F#\	.
16Gn\	.
16F#\	.
16G\	.
16G#X\JJ	.
=104	=104
8FF#\L	8a\ 8cc#
8A\J 8f#	8r
8F#\L	8a\ 8cc#
8A\J 8f#	8r
=105	=105
8DD\L	8a\ 8ff#
8F#\J 8d	8r
8D\L	8a\ 8ff#
8F#\J 8d	8r
=106	=106
8EE\L	8g#\ 8ee
8G#\J 8d	4g#\ 4ee
8GG#\L	.
8G#\J 8d	8g#\ 8dd
=107	=107
.	32qqdd/
8AA\L	8a\L 8cc#
8A\J 8c#	8g#\J 8b#X
8C#\L	4a\ 4cc#
8A\J 8c#	.
=108	=108
8AA\L	8a\ 8cc#
8A\J 8c#	8r
8C#\L	8a\ 8cc#
8A\J 8c#	8r
=109	=109
8FF#\L	8cc#\ 8aa
8A\J 8f#	8r
8F#\L	8cc#\ 8aa
8A\J 8f#	8r
=110	=110
8GG#\L	8b#X\ 8gg#
8B#X\J 8f#	4b#\ 4gg#
8BB#X\L	.
8B#\J 8f#	8dd#X\ 8ff#
!!LO:LB:g=original
=111	=111
.	32qqff#/
8C#\L	8cc#\L 8ee#X
8c#\J 8e#X	8b#X\J 8dd##X
8E#X\L	4cc#\ 4ee#
8c#\J 8e#	.
=112	=112
8D\L	8a\ 8ff#
8A\J 8d	8r
8F#\L	8a\ 8ff#
8A\J 8d	8r
=113	=113
8EE\L	4.g#\ 4.ee
8G#\J 8d	.
8GG#\L	.
8G#\J 8d	8g#\ 8dd
=114	=114
8AA\L	8a\L 8cc#
8A\J 8c#	8a\J 8cc#
8BB\L	4f#\ 4dd
8A\J 8d	.
=115	=115
8C#\L	4.e#X\ 4.cc#
8G#\J 8c#	.
8E#X\L	.
8G#\J 8c#	8e#\ 8b
=116	=116
8F#\L	16a\LL
.	16g#\
8A\J 8c#	16f#\
.	16a\
8F#\L	16b\
.	16a\
8B\J 8d	16g#\
.	16b\JJ
=117	=117
8F#\L	16b#X\LL
.	16bn\
8B#X\J 8d#X	16a\
.	16b#X\
8F#\L	16cc#\
.	16b#\
8d#\J 8f#	16a##X\
.	16b#\JJ
=118	=118
8C#\L	8e#X\ 8cc#
8G#\J 8B 8c#	4e#\ 4cc#
8E#X\L	.
8G#\J 8B 8c#	8e#\
!!LO:LB:g=original
=119	=119
8F#\ 8A	8f#/
8r	8r
8C#\ 8E#X 8B	8c#/ 8g# 8cc#
8r	8r
=120	=120
!	!LO:TX:b:t=Fine.
32qqFF#\ 32qqC# 32qqA	16qqf#\ 16qqcc# 16qqff#
2FFF#/ 2FF#	2ff#\ 2fff#
!!LO:PB:g=original
==	==
*-	*-
!!!system-decoration: {(s1,s2)}
!!!RDF**kern: < = below
!!!RDF**kern: > = above
!!!ENC: Andrzej Gręziak
!!!END: 2021-06-02
!!!ENC: Marta Chmielewska
!!!END: 2021-10-10
